T: Paddy's Rambles Through The Park
M: 3/4
L: 1/8
K: Ador
|:A/G/F/G/|E2  A2  A2|G2 B2 {B/c/}BA|BG3 G2|
G4 AG| E2  A2 AB| c4 {Bc}BA| ^GE3 E2|E4||
|: ^cd|e2  ed ^c<e |d2 d^c Bd |^c2 cB  Ac|
B4 EF|G3B e^c|d3e f^d|e2 E2 ^G2|A4||
|:A2 a2 a2|A2 g2 g2 BA|BG3 G2|G4 B_B|
A2 a2 a2|A2 g2 g2 BA|GE3 E2|E4||
